images/logo-16.svg

<svg xmlns="http://www.w3.org/2000/svg" width="16" height="16" viewBox="0 0 16 16"><path fill="none" stroke="#231F20" stroke-linecap="round" stroke-linejoin="round" stroke-miterlimit="10" stroke-width=".18" d="M9.9 4.6l1.2.2"/><path fill="#231F20" d="M15.2 4.2l-4.7-.8-.2-1c0-.1-.1-.1-.2-.1s-.2 0-.2.1l-.4.8h-.3c-.1 0-.1 0-.2.1L.7 12.2c-.1.1-.1.2 0 .3l1 1c0 .1.1.1.2.1H2l6-5.2 5.1-1.5c.1 0 .1-.1.1-.2s-.1-.2-.2-.2l-2.2-.1 4.3-1.6c.1 0 .1-.1.1-.2.1-.4 0-.4 0-.4zm-13 6.9l.4-.4.9 1-.5.3-.8-.9zm.6 1l-.4.3-.8-.8.4-.4.8.9zm-1.7.1l.4-.5.8.8-.4.5-.8-.8zm8.8-6.1c-.1 0-.1.1-.1.2s.1.2.2.2l2 .1-4.1 1.2h-.1l-4.2 3.7-.9-1 6.5-7 .3.1c.1 0 .2 0 .2-.1L10 3l.1.6c0 .1.1.1.1.1l4.1.7-4.4 1.7z"/></svg>

<?xml version="1.0" encoding="utf-8"?>
<!-- Generator: Adobe Illustrator 22.0.1, SVG Export Plug-In . SVG Version: 6.00 Build 0)  -->
<svg version="1.1" id="Layer_1" xmlns="http://www.w3.org/2000/svg" xmlns:xlink="http://www.w3.org/1999/xlink" x="0px" y="0px"
	 width="16px" height="16px" viewBox="0 0 16 16" enable-background="new 0 0 16 16" xml:space="preserve">
<line fill="none" stroke="#231F20" stroke-width="0.1845" stroke-linecap="round" stroke-linejoin="round" stroke-miterlimit="10" x1="9.9" y1="4.6" x2="11.1" y2="4.8"/>
<path fill="#231F20" d="M15.2,4.2l-4.7-0.8l-0.2-1c0-0.1-0.1-0.1-0.2-0.1c-0.1,0-0.2,0-0.2,0.1L9.5,3.2l-0.3,0c-0.1,0-0.1,0-0.2,0.1
	l-8.3,8.9c-0.1,0.1-0.1,0.2,0,0.3l1,1c0,0.1,0.1,0.1,0.2,0.1c0,0,0,0,0.1,0l6-5.2l5.1-1.5c0.1,0,0.1-0.1,0.1-0.2
	c0-0.1-0.1-0.2-0.2-0.2l-2.2-0.1l4.3-1.6c0.1,0,0.1-0.1,0.1-0.2C15.3,4.2,15.2,4.2,15.2,4.2z M2.2,11.1l0.4-0.4l0.9,1L3,12L2.2,11.1
	z M2.8,12.1l-0.4,0.3l-0.8-0.8l0.4-0.4L2.8,12.1z M1.1,12.2l0.4-0.5l0.8,0.8L1.9,13L1.1,12.2z M9.9,6.1c-0.1,0-0.1,0.1-0.1,0.2
	c0,0.1,0.1,0.2,0.2,0.2l2,0.1L7.9,7.8c0,0,0,0-0.1,0l-4.2,3.7l-0.9-1l6.5-7l0.3,0.1c0.1,0,0.2,0,0.2-0.1L10,3l0.1,0.6
	c0,0.1,0.1,0.1,0.1,0.1l4.1,0.7L9.9,6.1z"/>
</svg>
